X: 2
T: The High Road To Linton
R: reel
M: 4/4
L: 1/8
K: Amaj
|:a2 a2 ef a2|ef ae fa ef|a2 a2 ef ae|fa ec B2 A2:||:c2 ec de fd|c2 ec Bc dB|c2 ec de fg|af ec B2 A2:||


Tune 1118	Setting 16925

